public/avatar/body/11.svg

<svg xmlns:xlink="http://www.w3.org/1999/xlink" height="82" width="84.85" xmlns="http://www.w3.org/2000/svg"><g transform="translate(37.4 42.25)"><use height="38" transform="translate(-11.95 -17.45)" width="32.05" xlink:href="#a"/><use height="21.6" transform="translate(-12.25 -17.95)" width="32.65" xlink:href="#b"/><use height="21.15" transform="translate(3.45 1.8)" width="21.45" xlink:href="#c"/><use height="21.15" transform="matrix(-1 0 0 1 4.55 1.8)" width="21.45" xlink:href="#c"/></g><defs><use height="38" width="32.05" xlink:href="#d" id="a"/><use height="21.6" width="32.65" xlink:href="#e" id="b"/><use height="21.15" width="21.45" xlink:href="#f" id="c"/><path d="M27.35 7.4q2.15 4.15 3.55 8.75 1.45 4.7 1.15 9.5-.35 4.95-4.2 8.1-3.8 3.2-8.75 4.05l-2.6.2q-3.6 0-7.05-1.15-4.65-1.6-7.1-5.5Q-.2 27.4.05 23q.2-4.4 2-9.3Q3.85 8.75 7 5.05 10.1 1.3 14.7.1l1.8-.1q1.9.05 3.7.8 4.75 2.05 7.15 6.6" fill="#fff" fill-rule="evenodd" transform="translate(-.05)" id="d"/><path d="M31.9 20.6q-.3-2.25-1-4.45-1.4-4.6-3.55-8.75-2.4-4.55-7.15-6.6-2.65-1.1-5.5-.7Q10.1 1.3 7 5.05q-3.15 3.7-4.95 8.65Q.7 17.3.25 20.6" fill="none" stroke="#000" stroke-linecap="round" stroke-linejoin="round" transform="translate(.25 .5)" id="e"/><g id="f"><path d="M14.15 10.45q-2.4 1.05-4.95 1.8L2.3 13.8l-2.85.1v-2.05l.05.15L1 10.7q.65-.55 1.5-.8 3.05-.6 5.75 1.3l.15-.5q.25-1.5-.65-2.6l4-2.5q2.55-2.1 3.4-5.6l.3 2.75q.35 4-1.3 7.7" fill="#f66" fill-rule="evenodd" transform="translate(1.05 .5)"/><path d="m15.8 11.2-1 1.05.4 1.75-1.1-1.05-1.7.7-.1 1.35-1.85-1-.65-.05-.7 1.45q-.6-.6-1.45-.65-.85-.05-1.35.35l-.85.9-.3-.35-.45-.3-1.45.05-.7 1.1q-.65-.8-1.65-1l-1.45.1v-1.7l2.85-.1 6.9-1.55q2.55-.75 4.95-1.8l1.65.75M7.75 8.1q.9 1.1.65 2.6l-.15.5Q5.55 9.3 2.5 9.9q-.85.25-1.5.8L-.5 12l-.05-.15V8.1L1.1 6.95q1-.75 2.15-.6 2.45.6 4.5 1.75" fill="#fcc" fill-rule="evenodd" transform="translate(1.05 .5)"/><path d="m-.55 15.6 1.45-.1q1 .2 1.65 1l.7-1.1 1.45-.05.45.3.3.35.85-.9q.5-.4 1.35-.35.85.05 1.45.65l.7-1.45.65.05 1.85 1 .1-1.35 1.7-.7L15.2 14l-.4-1.75 1-1.05 1.2.95q1.7 1.45 2.7 3.35.35.75.1 1.5-1.2.95-2.6.45l-1.1-.1-.65.25-.7.2-1.4-.2q-.5 1-1.3 1.25l-1.9-.05-.75 1-3.25-.5v.5l-1.65-.1-1.85-.25-.8.5q-1.2.5-2.4-.25v-4.1" fill="#f06" fill-rule="evenodd" transform="translate(1.05 .5)"/><path d="M-.55 19.7q1.2.75 2.4.25l.8-.5 1.85.25 1.65.1v-.5l3.25.5.75-1 1.9.05q.8-.25 1.3-1.25l1.4.2.7-.2.65-.25 1.1.1q1.4.5 2.6-.45.25-.75-.1-1.5-1-1.9-2.7-3.35l-1.2-.95M15.15 0l.3 2.75q.35 4-1.3 7.7" fill="none" stroke="#000" stroke-linecap="round" stroke-linejoin="round" transform="translate(1.05 .5)"/><path d="m7.75 8.1 4-2.5q2.55-2.1 3.4-5.6M-.55 8.1 1.1 6.95q1-.75 2.15-.6 2.45.6 4.5 1.75" fill="none" stroke="#f06" stroke-linecap="round" stroke-linejoin="round" transform="translate(1.05 .5)"/><path d="m15.8 11.2-1.65-.75" fill="none" stroke="#333" stroke-linecap="round" stroke-linejoin="round" transform="translate(1.05 .5)"/></g></defs></svg>

<?xml version="1.0" encoding="UTF-8" standalone="no"?>
<svg xmlns:xlink="http://www.w3.org/1999/xlink" height="82.0px" width="84.85px" xmlns="http://www.w3.org/2000/svg">
  <g transform="matrix(1.0, 0.0, 0.0, 1.0, 37.4, 42.25)">
    <use height="38.0" transform="matrix(1.0, 0.0, 0.0, 1.0, -11.95, -17.45)" width="32.05" xlink:href="#sprite0"/>
    <use height="21.6" transform="matrix(1.0, 0.0, 0.0, 1.0, -12.25, -17.95)" width="32.65" xlink:href="#sprite1"/>
    <use height="21.15" transform="matrix(1.0, 0.0, 0.0, 1.0, 3.45, 1.8)" width="21.45" xlink:href="#sprite2"/>
    <use height="21.15" transform="matrix(-1.0, 0.0, 0.0, 1.0, 4.55, 1.8)" width="21.45" xlink:href="#sprite2"/>
  </g>
  <defs>
    <g id="sprite0" transform="matrix(1.0, 0.0, 0.0, 1.0, -0.05, 0.0)">
      <use height="38.0" transform="matrix(1.0, 0.0, 0.0, 1.0, 0.05, 0.0)" width="32.05" xlink:href="#shape0"/>
    </g>
    <g id="shape0" transform="matrix(1.0, 0.0, 0.0, 1.0, -0.05, 0.0)">
      <path d="M27.35 7.4 Q29.5 11.55 30.9 16.15 32.35 20.85 32.05 25.65 31.7 30.6 27.85 33.75 24.05 36.95 19.1 37.8 L16.5 38.0 Q12.9 38.0 9.45 36.85 4.8 35.25 2.35 31.35 -0.2 27.4 0.05 23.0 0.25 18.6 2.05 13.7 3.85 8.75 7.0 5.05 10.1 1.3 14.7 0.1 L16.5 0.0 Q18.4 0.05 20.2 0.8 24.95 2.85 27.35 7.4" fill="#ffffff" fill-rule="evenodd" stroke="none"/>
    </g>
    <g id="sprite1" transform="matrix(1.0, 0.0, 0.0, 1.0, 0.25, 0.5)">
      <use height="21.6" transform="matrix(1.0, 0.0, 0.0, 1.0, -0.25, -0.5)" width="32.65" xlink:href="#shape1"/>
    </g>
    <g id="shape1" transform="matrix(1.0, 0.0, 0.0, 1.0, 0.25, 0.5)">
      <path d="M31.9 20.6 Q31.6 18.35 30.9 16.15 29.5 11.55 27.35 7.4 24.95 2.85 20.2 0.8 17.55 -0.3 14.7 0.1 10.1 1.3 7.0 5.05 3.85 8.75 2.05 13.7 0.7 17.3 0.25 20.6" fill="none" stroke="#000000" stroke-linecap="round" stroke-linejoin="round" stroke-width="1.0"/>
    </g>
    <g id="sprite2" transform="matrix(1.0, 0.0, 0.0, 1.0, 1.05, 0.5)">
      <use height="21.15" transform="matrix(1.0, 0.0, 0.0, 1.0, -1.05, -0.5)" width="21.45" xlink:href="#shape2"/>
    </g>
    <g id="shape2" transform="matrix(1.0, 0.0, 0.0, 1.0, 1.05, 0.5)">
      <path d="M14.15 10.45 Q11.75 11.5 9.2 12.25 L2.3 13.8 -0.55 13.9 -0.55 11.85 -0.5 12.0 1.0 10.7 Q1.65 10.15 2.5 9.9 5.55 9.3 8.25 11.2 L8.4 10.7 Q8.65 9.2 7.75 8.1 L11.75 5.6 Q14.3 3.5 15.15 0.0 L15.45 2.75 Q15.8 6.75 14.15 10.45" fill="#ff6666" fill-rule="evenodd" stroke="none"/>
      <path d="M15.8 11.2 L14.8 12.25 15.2 14.0 14.1 12.95 12.4 13.65 12.3 15.0 10.45 14.0 9.8 13.95 9.1 15.4 Q8.5 14.8 7.65 14.75 6.8 14.7 6.3 15.1 L5.45 16.0 5.15 15.65 4.7 15.35 3.25 15.4 2.55 16.5 Q1.9 15.7 0.9 15.5 L-0.55 15.6 -0.55 13.9 2.3 13.8 9.2 12.25 Q11.75 11.5 14.15 10.45 L15.8 11.2 M7.75 8.1 Q8.65 9.2 8.4 10.7 L8.25 11.2 Q5.55 9.3 2.5 9.9 1.65 10.15 1.0 10.7 L-0.5 12.0 -0.55 11.85 -0.55 8.1 1.1 6.95 Q2.1 6.2 3.25 6.35 5.7 6.95 7.75 8.1" fill="#ffcccc" fill-rule="evenodd" stroke="none"/>
      <path d="M-0.55 15.6 L0.9 15.5 Q1.9 15.7 2.55 16.5 L3.25 15.4 4.7 15.35 5.15 15.65 5.45 16.0 6.3 15.1 Q6.8 14.7 7.65 14.75 8.5 14.8 9.1 15.4 L9.8 13.95 10.45 14.0 12.3 15.0 12.4 13.65 14.1 12.95 15.2 14.0 14.8 12.25 15.8 11.2 17.0 12.15 Q18.7 13.6 19.7 15.5 20.05 16.25 19.8 17.0 18.6 17.95 17.2 17.45 L16.1 17.35 15.45 17.6 14.75 17.8 13.35 17.6 Q12.85 18.6 12.05 18.85 L10.15 18.8 9.4 19.8 6.15 19.3 6.15 19.8 4.5 19.7 2.65 19.45 1.85 19.95 Q0.65 20.45 -0.55 19.7 L-0.55 15.6" fill="#ff0066" fill-rule="evenodd" stroke="none"/>
      <path d="M-0.55 19.7 Q0.65 20.45 1.85 19.95 L2.65 19.45 4.5 19.7 6.15 19.8 6.15 19.3 9.4 19.8 10.15 18.8 12.05 18.85 Q12.85 18.6 13.35 17.6 L14.75 17.8 15.45 17.6 16.1 17.35 17.2 17.45 Q18.6 17.95 19.8 17.0 20.05 16.25 19.7 15.5 18.7 13.6 17.0 12.15 L15.8 11.2 M15.15 0.0 L15.45 2.75 Q15.8 6.75 14.15 10.45" fill="none" stroke="#000000" stroke-linecap="round" stroke-linejoin="round" stroke-width="1.0"/>
      <path d="M7.75 8.1 L11.75 5.6 Q14.3 3.5 15.15 0.0 M-0.55 8.1 L1.1 6.95 Q2.1 6.2 3.25 6.35 5.7 6.95 7.75 8.1" fill="none" stroke="#ff0066" stroke-linecap="round" stroke-linejoin="round" stroke-width="1.0"/>
      <path d="M15.8 11.2 L14.15 10.45" fill="none" stroke="#333333" stroke-linecap="round" stroke-linejoin="round" stroke-width="1.0"/>
    </g>
  </defs>
</svg>
